X:1
Q:1/4=108
L:1/8
M:1/4
K:C clef=G2
V:1
%%MIDI program 52
z2|z2|z2|z2|
z2|z2|z2|z2|
d31/16|d31/16|d31/32d31/32|c31/16|
G31/16|A31/16|A2-|A2-|
A31/16|A31/32A31/32|A31/32A31/32|d31/32c-|
c31/32A31/32|A31/16|G2-|G31/16|
d31/32d31/32|c31/32c31/32|G31/32G31/32|A31/16|
E31/32E31/32|A31/32A31/32|G31/32G31/32|A31/16|
E31/16|E31/16|A31/32A31/32|A31/32A31/32|
G31/32G31/32|A31/16|A2-|A31/16|
L:1/8
M:1/4
K:C clef=G2
V:2
%%MIDI program 52
z2|z2|z2|z2|
z2|z2|z2|z2|
A31/32G31/32|F31/16|F31/32F31/32|G31/32F31/32|
E31/16|F31/16|F2-|F2-|
F31/16|E31/32E31/32|F31/32F31/32|G31/16|
G31/32F31/32|F31/32E31/32|D2-|D31/16|
F31/32F31/32|E31/32E31/32|E31/32E31/32|E31/16|
E31/32E31/32|C31/32D31/32|E31/32D31/32|C31/16|
E31/32D31/32|C31/16|D31/32E31/32|F31/32E31/32|
D31/32D31/32|E31/16|E2-|E31/16|
L:1/8
M:1/4
K:C clef=F4
V:3
%%MIDI program 53
D31/16|D2-|D31/32D31/32|C31/16|
G,31/16|A,31/16|A,2-|A,31/16|
D31/16|D31/16|A,31/32A,31/32|C31/16|
C31/16|C31/16|C2-|C2-|
C31/16|C31/32C31/32|D31/32D31/32|E31/16|
E31/32C31/32|C31/16|B,2-|B,31/16|
A,31/32A,31/32|A,31/32A,31/32|B,31/32B,31/32|C31/16|
C31/32B,31/32|C31/32C31/32|C31/32C31/32|C31/16|
B,31/16|A,31/16|A,31/32A,31/32|D31/32C31/32|
B,31/32B,31/32|C31/16|C2-|C31/16|
L:1/8
M:1/4
K:C clef=F4
V:4
%%MIDI program 53
z2|z2|z2|z2|
z2|z2|z2|z2|
F,31/32E,31/32|D,31/16|D,31/32D,31/32|E,31/32F,31/32|
G,31/16|F,31/16|F,2-|F,2-|
F,31/16|A,31/32G,31/32|F,31/32F,31/32|E,31/16|
E,31/32F,31/32|F,31/16|G,2-|G,31/16|
D,31/32D,31/32|A,,31/32A,,31/32|E,31/32E,31/32|C,31/32E,31/32|
A,31/32G,31/32|F,31/32F,31/32|C,31/32C,31/32|F,31/16|
G,31/16|A,31/32G,31/32|F,31/32E,31/32|D,31/32D,31/32|
E,31/32E,31/32|A,,31/16|A,,2-|A,,31/16|
L:1/8
M:1/4
K:C clef=G2
V:5
%%MIDI program 0
D31/16|D2-|D31/32D31/32|C31/16|
z2|z2|z2|z2|
[D-d-A]15/16[G-Dd]7/8|[F-A-d-]2|[FAd]7/8z/8[FAd]15/16|[CGc]15/8|
[CEG]15/8|[CFA]15/8|[C-F-A-]2|[C-F-A-]2|
[C-F-A-]3/2[CFA]3/16z3/8|[CEA]15/8|[D-F-A]15/16[A-DF]7/8|[E-G-d]15/16[c-E-G-]|
[cEG]7/8[CFA]15/16|[C-A-F]15/16[E-CA]7/8|[B,-D-G-]2|[B,DG]7/4z7/32|
[F-A-d]15/16[d-FA]7/8|[EAc]15/8|[B,-E-G]15/16[G-B,E]7/8|[CEA]31/16|
[CE]31/32[EB,]15/16|[A-C]31/32[AD]31/32|[GE]31/32[GD]15/16|[CA]15/8|
[B,-E-E][B,-E-D]15/16|[CE]15/8|[DA]15/16[EA]15/16|[DFA]15/16[CEA]15/16|
[B,DG]15/16[B,DG]15/16|[C-E-A-]2|[C-E-A-]2|[C-E-A-]3/2[CEA]3/16z3/8|
L:1/8
M:1/4
K:C clef=F4
V:6
%%MIDI program 0
z2|z2|z2|z2|
G,31/16|A,31/16|A,2-|A,7/4z7/32|
[F,,F,]31/32[E,,E,]15/16|[D,,D,]15/8|[D,,D,]15/8|[E,,E,]31/32[F,,F,]15/16|
[G,,G,]15/8|[F,,-F,-]2|[F,,F,]7/4z7/32|[F,,F,]15/16[E,,E,]15/16|
[F,,F,]15/16[G,,G,]15/16|[A,,A,]15/16[G,,G,]15/16|[F,,F,]15/8|[E,,-E,-]2|
[E,,E,]7/8z/8[F,,F,]15/16|[F,,F,]15/8|[G,,-G,-]2|[G,,G,]7/4z7/32|
[D,,D,]15/8|[A,,,A,,]15/8|[E,,E,]15/8|[C,,C,]15/16[E,,E,]15/16|
[A,,A,]15/16[G,,G,]15/16|[F,,F,]15/8|[C,,C,]15/8|[F,,F,]15/8|
[G,,G,]15/8|[A,,A,]15/16[G,,G,]15/16|[F,,F,]15/16[E,,E,]15/16|[D,,D,]15/8|
[E,,E,]15/8|[A,,,-A,,-]2|[A,,,-A,,-]2|[A,,,-A,,-]3/2[A,,,A,,]3/16z3/8|
Q:1/4=800
Q:1/4=108
L:1/8
M:1/4
K:C clef=F4
V:2
%%MIDI program 53
D31/16
L:1/8
M:1/4
K:C clef=F4
V:3
%%MIDI program 0
D15/8
Q:1/4=108
L:1/8
M:1/4
K:C clef=G2
V:1
%%MIDI program 52
z2|z2|z2|z2|
z2|z2|z2|d31/16|
d31/16|d31/32d31/32|c31/16|G31/16|
A31/16|A31/16|A2-|A2|
A31/32A31/32|A31/32A31/32|d31/32c31/32-|cA31/32|
A31/16|G31/16|G2|d31/32d31/32|
c31/32c31/32|G31/32G31/32|A31/16|E31/32E31/32|
A31/32A31/32|G31/32G31/32|A31/16|E31/16|
E31/16|A31/32A31/32|A31/32A31/32|G31/32G31/32|
A31/16|A31/16|A2|
L:1/8
M:1/4
K:C clef=G2
V:2
%%MIDI program 52
z2|z2|z2|z2|
z2|z2|z2|A31/32G31/32|
F31/16|F31/32F31/32|G31/32F31/32|E31/16|
F31/16|F31/16|F2-|F2|
E31/32E31/32|F31/32F31/32|G31/16|G31/32F31/32|
F31/32E31/32|D31/16|D2|F31/32F31/32|
E31/32E31/32|E31/32E31/32|E31/16|E31/32E31/32|
C31/32D31/32|E31/32D31/32|C31/16|E31/32D31/32|
C31/16|D31/32E31/32|F31/32E31/32|D31/32D31/32|
E31/16|E31/16|E2|
L:1/8
M:1/4
K:C clef=F4
V:3
%%MIDI program 53
D31/16|DD31/32|C31/16|G,31/16|
A,31/16|A,31/16|A,2|D31/16|
D31/16|A,31/32A,31/32|C31/16|C31/16|
C31/16|C31/16|C2-|C2|
C31/32C31/32|D31/32D31/32|E31/16|E31/32C31/32|
C31/16|B,31/16|B,2|A,31/32A,31/32|
A,31/32A,31/32|B,31/32B,31/32|C31/16|C31/32B,31/32|
C31/32C31/32|C31/32C31/32|C31/16|B,31/16|
A,31/16|A,31/32A,31/32|D31/32C31/32|B,31/32B,31/32|
C31/16|C31/16|C2|
L:1/8
M:1/4
K:C clef=F4
V:4
%%MIDI program 53
z2|z2|z2|z2|
z2|z2|z2|F,31/32E,31/32|
D,31/16|D,31/32D,31/32|E,31/32F,31/32|G,31/16|
F,31/16|F,31/16|F,2-|F,2|
A,31/32G,31/32|F,31/32F,31/32|E,31/16|E,31/32F,31/32|
F,31/16|G,31/16|G,2|D,31/32D,31/32|
A,,31/32A,,31/32|E,31/32E,31/32|C,31/32E,31/32|A,31/32G,31/32|
F,31/32F,31/32|C,31/32C,31/32|F,31/16|G,31/16|
A,31/32G,31/32|F,31/32E,31/32|D,31/32D,31/32|E,31/32E,31/32|
A,,31/16|A,,31/16|A,,2|
L:1/8
M:1/4
K:C clef=G2
V:5
%%MIDI program 0
D31/16|DD31/32|C31/16|z2|
|z64z16z4z|z2|[D-d-A]15/16[G-Dd]7/8|
[FAd]31/16|[FAd]7/8z/8[FAd]15/16|[CGc]15/8|[CEG]15/8|
[CFA]15/8|[CFA]31/16|[C-F-A-]2|[C-F-A-]3/2(5:4[CFA]/4z/2|
[CEA]15/8|[D-F-A]15/16[A-DF]7/8|[E-G-d]15/16[c-E-G-]31/32|[cEG]7/8[CFA]15/16|
[C-A-F]15/16[E-CA]7/8|[B,DG]31/16|[B,DG]7/4(5:4z/4|[F-A-d]15/16[d-FA]7/8|
[EAc]15/8|[B,-E-G]15/16[G-B,E]7/8|[CEA]31/16|[CE]31/32[EB,]15/16|
[A-C]31/32[AD]31/32|[GE]31/32[GD]15/16|[CA]15/8|[B,-E-E][B,-E-D]15/16|
[CE]15/8|[DA]15/16[EA]15/16|[DFA]15/16[CEA]15/16|[B,DG]15/16[B,DG]15/16|
[CEA]31/16|[C-E-A-]2|[C-E-A-]3/2(5:4[CEA]/4z/2|
L:1/8
M:1/4
K:C clef=F4
V:6
%%MIDI program 0
z2|z2|z2|G,31/16|
A,31/16|A,31/16|A,7/4(5:4z/4|[F,,F,]31/32[E,,E,]15/16|
[D,,D,]15/8|[D,,D,]15/8|[E,,E,]31/32[F,,F,]15/16|[G,,G,]15/8|
[F,,F,]31/16|[F,,F,]7/4(5:4z/4|[F,,F,]15/16[E,,E,]15/16|[F,,F,]15/16[G,,G,]15/16|
[A,,A,]15/16[G,,G,]15/16|[F,,F,]15/8|[E,,E,]31/16|[E,,E,]7/8z/8[F,,F,]15/16|
[F,,F,]15/8|[G,,G,]31/16|[G,,G,]7/4(5:4z/4|[D,,D,]15/8|
[A,,,A,,]15/8|[E,,E,]15/8|[C,,C,]15/16[E,,E,]15/16|[A,,A,]15/16[G,,G,]15/16|
[F,,F,]15/8|[C,,C,]15/8|[F,,F,]15/8|[G,,G,]15/8|
[A,,A,]15/16[G,,G,]15/16|[F,,F,]15/16[E,,E,]15/16|[D,,D,]15/8|[E,,E,]15/8|
[A,,,A,,]31/16|[A,,,-A,,-]2|[A,,,-A,,-]3/2(5:4[A,,,A,,]/4z/2|
Q:1/4=800
Q:1/4=108
L:1/8
M:1/4
K:C clef=F4
V:2
%%MIDI program 53
D31/16
L:1/8
M:1/4
K:C clef=F4
V:3
%%MIDI program 0
D15/8
Q:1/4=108
L:1/8
M:1/4
K:C clef=G2
V:1
%%MIDI program 52
z2|z2|z2|z2|
z2|z2|z2|d31/16|
d31/16|d31/32d31/32|c31/16|G31/16|
A31/16|A31/16|A2-|A2|
A31/32A31/32|A31/32A31/32|d31/32c31/32-|cA31/32|
A31/16|G31/16|G2|d31/32d31/32|
c31/32c31/32|G31/32G31/32|A31/16|E31/32E31/32|
A31/32A31/32|G31/32G31/32|A31/16|E31/16|
E31/16|A31/32A31/32|A31/32A31/32|G31/32G31/32|
A31/16|A31/16|A2|
L:1/8
M:1/4
K:C clef=G2
V:2
%%MIDI program 52
z2|z2|z2|z2|
z2|z2|z2|A31/32G31/32|
F31/16|F31/32F31/32|G31/32F31/32|E31/16|
F31/16|F31/16|F2-|F2|
E31/32E31/32|F31/32F31/32|G31/16|G31/32F31/32|
F31/32E31/32|D31/16|D2|F31/32F31/32|
E31/32E31/32|E31/32E31/32|E31/16|E31/32E31/32|
C31/32D31/32|E31/32D31/32|C31/16|E31/32D31/32|
C31/16|D31/32E31/32|F31/32E31/32|D31/32D31/32|
E31/16|E31/16|E2|
L:1/8
M:1/4
K:C clef=F4
V:3
%%MIDI program 53
D31/16|DD31/32|C31/16|G,31/16|
A,31/16|A,31/16|A,2|D31/16|
D31/16|A,31/32A,31/32|C31/16|C31/16|
C31/16|C31/16|C2-|C2|
C31/32C31/32|D31/32D31/32|E31/16|E31/32C31/32|
C31/16|B,31/16|B,2|A,31/32A,31/32|
A,31/32A,31/32|B,31/32B,31/32|C31/16|C31/32B,31/32|
C31/32C31/32|C31/32C31/32|C31/16|B,31/16|
A,31/16|A,31/32A,31/32|D31/32C31/32|B,31/32B,31/32|
^C31/16|^C31/16|^C2|
L:1/8
M:1/4
K:C clef=F4
V:4
%%MIDI program 53
z2|z2|z2|z2|
z2|z2|z2|F,31/32E,31/32|
D,31/16|D,31/32D,31/32|E,31/32F,31/32|G,31/16|
F,31/16|F,31/16|F,2-|F,2|
A,31/32G,31/32|F,31/32F,31/32|E,31/16|E,31/32F,31/32|
F,31/16|G,31/16|G,2|D,31/32D,31/32|
A,,31/32A,,31/32|E,31/32E,31/32|C,31/32E,31/32|A,31/32G,31/32|
F,31/32F,31/32|C,31/32C,31/32|F,31/16|G,31/16|
A,31/32G,31/32|F,31/32E,31/32|D,31/32D,31/32|E,31/32E,31/32|
A,,31/16|A,,31/16|A,,2|
L:1/8
M:1/4
K:C clef=G2
V:5
%%MIDI program 0
D31/16|DD31/32|C31/16|z2|
|z128z32z4z2z3/16|z2|[D-d-A]15/16[G-Dd]7/8|
[FAd]31/16|[FAd]7/8z/8[FAd]15/16|[CGc]15/8|[CEG]15/8|
[CFA]15/8|[CFA]31/16|[C-F-A-]2|[C-F-A-]3/2(5:4[CFA]/4z/2|
[CEA]15/8|[D-F-A]15/16[A-DF]7/8|[E-G-d]15/16[c-E-G-]31/32|[cEG]7/8[CFA]15/16|
[C-A-F]15/16[E-CA]7/8|[B,DG]31/16|[B,DG]7/4(5:4z/4|[F-A-d]15/16[d-FA]7/8|
[EAc]15/8|[B,-E-G]15/16[G-B,E]7/8|[CEA]31/16|[CE]31/32[EB,]15/16|
[A-C]31/32[AD]31/32|[GE]31/32[GD]15/16|[CA]15/8|[B,-E-E][B,-E-D]15/16|
[CE]15/8|[DA]15/16[EA]15/16|[DFA]15/16[CEA]15/16|[B,DG]15/16[B,DG]15/16|
[^CEA]31/16|[^C-E-A-]2|[^C-E-A-]3/2(5:4[^CEA]/4z/2|
L:1/8
M:1/4
K:C clef=F4
V:6
%%MIDI program 0
z2|z2|z2|G,31/16|
A,31/16|A,31/16|A,7/4(5:4z/4|[F,,F,]31/32[E,,E,]15/16|
[D,,D,]15/8|[D,,D,]15/8|[E,,E,]31/32[F,,F,]15/16|[G,,G,]15/8|
[F,,F,]31/16|[F,,F,]7/4(5:4z/4|[F,,F,]15/16[E,,E,]15/16|[F,,F,]15/16[G,,G,]15/16|
[A,,A,]15/16[G,,G,]15/16|[F,,F,]15/8|[E,,E,]31/16|[E,,E,]7/8z/8[F,,F,]15/16|
[F,,F,]15/8|[G,,G,]31/16|[G,,G,]7/4(5:4z/4|[D,,D,]15/8|
[A,,,A,,]15/8|[E,,E,]15/8|[C,,C,]15/16[E,,E,]15/16|[A,,A,]15/16[G,,G,]15/16|
[F,,F,]15/8|[C,,C,]15/8|[F,,F,]15/8|[G,,G,]15/8|
[A,,A,]15/16[G,,G,]15/16|[F,,F,]15/16[E,,E,]15/16|[D,,D,]15/8|[E,,E,]15/8|
[A,,,A,,]31/16|[A,,,-A,,-]2|[A,,,-A,,-]3/2(5:4[A,,,A,,]/4z/2|


